!!!OTL: SENTER KLOS ES EN BRAVE MANN
!!!ARE: Europa, Mitteleuropa, Deutschland, Niederrhein, Meurs
!!!SCT: E1271
!!!YEM: Copyright 1995, estate of Helmut Schaffrath.
**kern
*ICvox
*Ivox
*M2/4
*k[f#]
*G:
=1
{8g
8g
8a
8a
=2
8b
8a
8g
8r}
=3
{8g
8g
8a
8a
=4
8b
8a
8g}
{8d
=5
8b
8b
8a
8g
=6
4b
8b}
{8b
=7
8a
8a
8a
8b
=8
4g
8g
8r}
==
!!!AGN: Ansinge -, Brauchtums - Lied, Kirchen - Fest, Sankt Nikolaus
!!!ONB: ESAC (Essen Associative Code) Database: ERK3
!!!AMT: simple duple
!!!AIN: vox
!!!EED: Helmut Schaffrath
!!!EEV: 1.0
*-
